public/img/facebook.svg

<svg enable-background="new 0 0 20 20" viewBox="0 0 20 20" xmlns="http://www.w3.org/2000/svg"><path d="m18.9 20c.6 0 1.1-.5 1.1-1.1v-17.8c0-.6-.5-1.1-1.1-1.1h-17.8c-.6 0-1.1.5-1.1 1.1v17.8c0 .6.5 1.1 1.1 1.1z" fill="#157dc3"/><path d="m13.8 20v-7.7h2.6l.4-3h-3v-2c0-.9.2-1.5 1.5-1.5h1.6v-2.7c-.3 0-1.2-.1-2.3-.1-2.3 0-3.9 1.4-3.9 4v2.2h-2.6v3h2.6v7.8z" fill="#fff"/></svg>

<?xml version="1.0" encoding="utf-8"?>
<!-- Generator: Adobe Illustrator 26.5.0, SVG Export Plug-In . SVG Version: 6.00 Build 0)  -->
<svg version="1.1" id="Layer_1" xmlns="http://www.w3.org/2000/svg" xmlns:xlink="http://www.w3.org/1999/xlink" x="0px" y="0px"
	 viewBox="0 0 20 20" style="enable-background:new 0 0 20 20;" xml:space="preserve">
<style type="text/css">
	.st0{fill:#157DC3;}
	.st1{fill:#FFFFFF;}
</style>
<g id="facebook">
	<path id="Blue_1_" class="st0" d="M18.9,20c0.6,0,1.1-0.5,1.1-1.1V1.1C20,0.5,19.5,0,18.9,0H1.1C0.5,0,0,0.5,0,1.1v17.8
		C0,19.5,0.5,20,1.1,20H18.9L18.9,20z"/>
	<path id="f" class="st1" d="M13.8,20v-7.7h2.6l0.4-3h-3V7.3c0-0.9,0.2-1.5,1.5-1.5h1.6V3.1c-0.3,0-1.2-0.1-2.3-0.1
		c-2.3,0-3.9,1.4-3.9,4v2.2H8.1v3h2.6V20H13.8z"/>
</g>
</svg>
